X:6130
T:Snade Mill
O:england
M:4/4
C:Andy Hornby
A:Lancaster
K:Am
E|\
EAcA B3c| EAcA BA^GA| EAcA B3c| dcBA ^GABc|\
EAcA B3A| EAcA BA^GA|
EABc dcBA|1 ^GABG A3 :|2 ^GABG A4 \
|:\
Eeef feed| dccB cAAc|
dcBA ^GABc| dcBA ^GABG|\
Eeef feed| dccB cAAc| cBBA ^GABc| dcB^G A3z:|
W:Copyright (C) Andy Hornby 4.4.97


